X:1
T:Skara, 10.10.10.10
T:Frank Sewall, circa 1910
T:Skara, 10.10.10.10
T:Public Domain
C:Frank Sewall, circa 1910
Z:Public Domain
%%score ( 1 2 ) 3
L:1/8
M:4/4
K:Ab
V:1 treble 
V:2 treble 
V:3 bass 
V:1
 [Ec]4 [DB]2 [CA]2 | [Fd]4 [Ec]4 | [EB]2 [EA]2 [EG]2 A2 | [GB]8 | [Ec]4 [Ed]2 [EB]2 | [Ee]4 [Ec]4 | %6
 [EB]2 [EG]2 [EA]2 [=DF]2 | E8 | [Ec]4 [DB]2 [CA]2 | [Fd]4 [Fc]4 | [Ff]2 [Fe]2 [Fd]2 [Ec]2 | %11
 [DB]8 | [EB]4 [Ec]2 [Ed]2 | [Ee]4 [Fc]4 | [FB]2 [Fd]2 [Ec]2 [DB]2 | [CA]8 |] %16
V:2
 x8 | x8 | x6 A2 | x8 | x8 | x8 | x8 | E8 | x8 | x8 | x8 | x8 | x8 | x8 | x8 | x8 |] %16
V:3
 [A,,A,]4 [A,,A,]2 [A,,A,]2 | [A,,A,]4 [A,,A,]4 | [D,G,]2 [C,A,]2 [B,,D]2 [A,,C]2 | [E,B,]8 | %4
 [A,,A,]4 [B,,G,]2 [D,G,]2 | [C,A,]4 [A,,A,]4 | [B,,G,]2 [B,,B,]2 [B,,F,]2 [B,,A,]2 | [E,G,]8 | %8
 [A,,A,]4 [A,,G,]2 [A,,A,]2 | [A,,A,]4 [A,,A,]4 | [F,=A,]2 [F,C]2 [F,B,]2 [F,A,]2 | [B,,B,]8 | %12
 [D,G,]4 [C,A,]2 [B,,B,]2 | [C,A,]4 [F,=A,]4 | [D,B,]2 [B,,B,]2 [E,G,]2 [E,G,]2 | [A,,A,]8 |] %16

